recipes/steamchat/icon.svg

<svg height="80" viewBox="0 0 80 80" width="80" xmlns="http://www.w3.org/2000/svg"><g fill="#303c42"><circle cx="50" cy="31" r="8"/><path d="m29.0701901 60.2547285c-1.7763592.9032544-3.9315794.6353658-5.4263951-.6744878-.6773489-.5392723-1.6642055-.4556218-2.238779.1897691s-.5330431 1.62358.0942157 2.2191161c2.6054732 2.2742084 6.3860716 2.6578295 9.4046479.9542992 3.0185763-1.7035304 4.6061574-5.1166781 3.9492798-8.4905743-.6568776-3.3738963-3.4126374-5.9608226-6.855251-6.4352592-.4279611-.0637715-.8637455.0474139-1.2070183.3079571-.3432729.2605433-.5644513.6479909-.6126111 1.0731371-.1152423.8776848.5096353 1.6820892 1.3972155 1.7986343 2.1239061.279389 3.8141484 1.8970615 4.1651836 3.9863535.3510352 2.0892919-.7194698 4.1601729-2.6379946 5.1031734z"/><path d="m39.0066071.00001499c-20.9227988-.0181661-38.13318472 16.47184021-39.00496044 37.37231971-.02009813.4463074.14448817.881199.45505787 1.2024137.23363856.2213938.52777408.3684323.84510748.4224697 1.10514054.3574744 9.75124009 4.0947064 14.78938079 6.4995339.5622045.2419673 1.2120219.1545093 1.690215-.2274837 2.5588618-2.2291733 5.9153457-3.3204003 9.2961822-3.0222832.5617842.0624986 1.1156974-.1713293 1.462686-.6174558l6.8583722-8.9693567c.247438-.3248407.3634821-.7309143.3250414-1.1374184 0-.2599814 0-.487465 0-.7149487.0541252-7.9324988 6.4238875-14.3754252 14.3567998-14.5217043 7.9329122-.146279 14.5359652 6.0574349 14.8826135 13.9825436.3466482 7.9251087-5.6895256 14.6814489-13.604925 15.2281072-.3328826.0229234-.6506408.1477322-.9101158.3574743l-10.8888847 8.9368591c-.3503374.2908069-.5625851.7152178-.5850744 1.1699161-.3793773 6.8860191-6.0713232 12.2773164-12.9691494 12.284119-5.8467655.0469151-10.9829372-3.8713116-12.4815873-9.5218171-.1189829-.4520374-.4269111-.8309507-.8451075-1.0399254l-6.1757854-3.0222833c-.63220927-.3255242-1.40267686-.2023063-1.90177872.3041441-.49910187.5064504-.61091703 1.2785056-.27599824 1.9056974 8.78181746 17.0259341 28.63193016 25.1535756 46.83589286 19.1769868s29.3705468-24.2874002 26.3473031-43.2039461c-3.0232438-18.9165458-19.340961-32.83656117-38.5012853-32.84396191z"/></g></svg>

<svg xmlns="http://www.w3.org/2000/svg" width="80" height="80" viewBox="0 0 80 80">
  <g fill="#303C42">
    <circle cx="50" cy="31" r="8"/>
    <path d="M29.0701901,60.2547285 C27.2938309,61.1579829 25.1386107,60.8900943 23.643795,59.5802407 C22.9664461,59.0409684 21.9795895,59.1246189 21.405016,59.7700098 C20.8304425,60.4154007 20.8719729,61.3935898 21.4992317,61.9891259 C24.1047049,64.2633343 27.8853033,64.6469554 30.9038796,62.9434251 C33.9224559,61.2398947 35.510037,57.826747 34.8531594,54.4528508 C34.1962818,51.0789545 31.440522,48.4920282 27.9979084,48.0175916 C27.5699473,47.9538201 27.1341629,48.0650055 26.7908901,48.3255487 C26.4476172,48.586092 26.2264388,48.9735396 26.178279,49.3986858 C26.0630367,50.2763706 26.6879143,51.080775 27.5754945,51.1973201 C29.6994006,51.4767091 31.3896429,53.0943816 31.7406781,55.1836736 C32.0917133,57.2729655 31.0212083,59.3438465 29.1026835,60.286847 L29.0701901,60.2547285 Z"/>
    <path d="M39.0066071,1.49949261e-05 C18.0838083,-0.0181511108 0.873422384,16.4718552 0.0016466605,37.3723347 C-0.0184514708,37.8186421 0.146134827,38.2535337 0.456704532,38.5747484 C0.690343093,38.7961422 0.984478607,38.9431807 1.30181201,38.9972181 C2.40695255,39.3546925 11.0530521,43.0919245 16.0911928,45.496752 C16.6533973,45.7387193 17.3032147,45.6512613 17.7814078,45.2692683 C20.3402696,43.040095 23.6967535,41.948868 27.07759,42.2469851 C27.6393742,42.3094837 28.1932874,42.0756558 28.540276,41.6295293 L35.3986482,32.6601726 C35.6460862,32.3353319 35.7621303,31.9292583 35.7236896,31.5227542 C35.7236896,31.2627728 35.7236896,31.0352892 35.7236896,30.8078055 C35.7778148,22.8753067 42.1475771,16.4323803 50.0804894,16.2861012 C58.0134016,16.1398222 64.6164546,22.3435361 64.9631029,30.2686448 C65.3097511,38.1937535 59.2735773,44.9500937 51.3581779,45.496752 C51.0252953,45.5196754 50.7075371,45.6444842 50.4480621,45.8542263 L39.5591774,54.7910854 C39.20884,55.0818923 38.9965923,55.5063032 38.974103,55.9610015 C38.5947257,62.8470206 32.9027798,68.2383179 26.0049536,68.2451205 C20.1581881,68.2920356 15.0220164,64.3738089 13.5233663,58.7233034 C13.4043834,58.271266 13.0964552,57.8923527 12.6782588,57.683378 L6.5024734,54.6610947 C5.87026413,54.3355705 5.09979654,54.4587884 4.60069468,54.9652388 C4.10159281,55.4716892 3.98977765,56.2437444 4.32469644,56.8709362 C13.1065139,73.8968703 32.9566266,82.0245118 51.1605893,76.047923 C69.364552,70.0713342 80.5311361,51.7605228 77.5078924,32.8439769 C74.4846486,13.9274311 58.1669314,0.00741572817 39.0066071,1.49949261e-05 Z"/>
  </g>
</svg>
